X:9
T:Hornpipe. RDO.09
M:4/4
L:1/8
Q:1/2=90
S:Robert D. Owen MS,Indiana,1826.
R:.Hornpipe
O:Indiana,USA
A:New Harmony
Z:vmp.Chris Partington
K:F
(cd/e/)|f2F2F2a/g/f|g2G2G2ga|(ba)gf (ef)ga|gec2c2(cd/e/)|!
f2F2F2ag/f/|g2G2G2ga|bagf efga|”qu’s in ms”f2f2f2:|!
|:cB|Afcf afcA|Bfdf bfdB|Afcf afcA|A2G2G2cB|!
Afcf afcA|Bfdf bfdB|bagf efga|f2f2f2:|

